icons/folder_type_buildkite_opened.svg

<svg xmlns="http://www.w3.org/2000/svg" viewBox="0 0 32 32"><path d="M27.4 5.5h-9.2l-2.1 4.2H4.3v4H.5l3.8 12.8h25.2v-21Zm-7.2 2.1h7.1v2.1h-8.1Zm5.5 6.1H6.6v-1.9h20.8v7.626Z" style="fill:#7bdbb6"/><path d="m7 15 8 3.92v8L7 23Zm16.08 0L31 18.92 23.08 23Z" style="fill:#30f2a2"/><path d="M23.08 15 15 18.92v8L23.08 23ZM31 18.92 23.08 23v8L31 26.92Z" style="fill:#14cc80"/></svg>

<svg xmlns="http://www.w3.org/2000/svg" viewBox="0 0 32 32"><title>folder_type_buildkite_opened</title><path d="M27.4,5.5H18.2L16.1,9.7H4.3v4H.5L4.3,26.5H29.5V5.5ZM20.2,7.6h7.1V9.7H19.2Zm5.5,6.1H6.6V11.8H27.4v7.626Z" style="fill:#7bdbb6"/><path d="M7,15l8,3.92v8L7,23Zm16.08,0L31,18.92,23.08,23Z" style="fill:#30f2a2"/><path d="M23.08,15,15,18.92v8L23.08,23ZM31,18.92,23.08,23v8L31,26.92Z" style="fill:#14cc80"/></svg>
